X:1
T:Da Jesus an dem Kreuze
T:Georg Vogler
T:Source : Catechismus---Würzburg---J.Volmari---1652. Editor : André Vierendeels (19/09/17).
T:Notes : Original clefs : C1, C3, C4, F4 Original note values have been halved Text Middle German
T:Da Jesus an dem Kreuze
T:©
T:©
T:©
C:Georg Vogler
Z:©
%%score [ 1 2 3 4 ]
L:1/8
Q:1/4=120
M:2/2
K:C
V:1 treble nm="Soprano" snm="S"
V:2 treble nm="Alto" snm="A"
V:3 treble-8 nm="Tenor" snm="T"
V:4 bass nm="Bass" snm="B"
V:1
"^1)" B4 c2 B2 | A2 B2 d2 c2 | B4 z2 B2 | c2 B2 d2 A2 | A2 F2 E4 | z2 D2 E2 E2 | G2 G2 E2 A2 | %7
w: Da Je- sus|an dem Kreu- ze|stund, und|ihm sein Leich- nam|ward ver- wund,|mit bit- ter-|li- chem Schmer- *|
w: Zum er- sten|sprach er süs- sig-|lich, zu|sei- nem Vat- ter|im Him- mel|mit kräff- ten|und mit Sin- *|
 ^G4 z2 B2 | c2 B2 A2 ^G2 | A2 F2 E4 | z2 D2 F2 G2 | A2 A2 G2 F2 | E8 |] %13
w: tzen, die|sie- ben Wort die|Je- sus sprach,|die be- tracht|in dei- nen Her-|tzen.|
w: nen: Ver-|gib ihn, Vat- ter|sie wiss'n nicht,|was sie an|mir ver- brin- *|gen.|
V:2
"^2)""^1)" E4 E2 E2 | C2 E2 F2 E2 | E4 z2 D2 | E2 E2 F2 D2 | C2 D2 ^C4 | z2 A,2 C2 C2 | %6
w: Da Je- sus|an dem Kreu- ze|stund, und|ihm sein Leich- nam|ward ver- wund,|mit bit- ter-|
w: Zum er- sten|sprach er süs- sig-|lich, zu|sei- nem Vat- ter|im Him- mel|mit kräff- ten|
 D2 D2 C>D E2 | E4 z2 E2 | E2 E2 C2 E2 | E2 D2 ^C4 | z2 A,2 D2 E2 | F2 F2 E2 D2 | B,8 |] %13
w: li- chem Schmer- * *|tzen, die|sie- ben Wort die|Je- sus sprach,|die be- tracht|in dei- nen Her-|tzen.|
w: und mit Sin- * *|nen: Ver-|gib ihn, Vat- ter|sie wiss'n nicht,|was sie an|mir ver- brin- *|gen.|
V:3
"^3)""^1)" ^G4 A2 G2 | F2 G2 A2 A2 | ^G4 z2 =G2 | G2 ^G2 A2 F2 | A2 A2 A4 | z2 F2 G2 A2 | %6
w: Da Je- sus|an dem Kreu- ze|stund, und|ihm sein Leich- nam|ward ver- wund,|mit bit- ter-|
w: Zum er- sten|sprach er süs- sig-|lich, zu|sei- nem Vat- ter|im Him- mel|mit kräff- ten|
 B2 B2 c4 | B4 z2 ^G2 | A2 ^G2 A2 B2 | A2 A2 A4 | z2 F2 A2 c2 | d2 c2 c>B A2 | ^G8 |] %13
w: li- chem Schmer-|tzen, die|sie- ben Wort die|Je- sus sprach,|die be- tracht|in dei- nen _ Her-|tzen.|
w: und mit Sin-|nen: Ver-|gib ihn, Vat- ter|sie wiss'n nicht,|was sie an|mir ver- brin- * *|gen.|
V:4
"^4)""^1)""^5)" E,4 A,,2 E,2 | F,2 E,2 D,2 A,,2 | E,4 z2 G,2 | E,2 E,2 D,2 D,2 | F,2 D,2 A,,4 | %5
w: Da Je- sus|an dem Kreu- ze|stund, und|ihm sein Leich- nam|waes ver- wund,|
w: Zum er- sten|sprach er süs- sig-|lich, zu|sei- nem Vat- ter|im Him- mel|
 z2 D,2 C,2 A,,2 | G,,2 G,,2 A,,4 | E,4 z2 E,2 | A,,2 E,2 F,2 E,2 | ^C,2 D,2 A,,4 | %10
w: mit bit- ter-|li- chem Schmer-|tzen, die|sie- ben Wort die|Je- sus sprach,|
w: mit kräff- ten|und mit Sin-|nen: Ver-|gib ihn, Vat- ter|sie wiss'n nicht,|
 z2 D,2 D,2 C,2 | F,2 F,2 C,2 D,2 | E,8 |] %13
w: die be- tracht|in dei- nen Her-|tzen.|
w: was sie an|mir ver- brin- gen.|Dar-|

